;FLAVOR:Marlin
;TIME:321
;Filament used: 0.337313m
;Layer height: 0.3
;MINX:111
;MINY:91
;MINZ:0.15
;MAXX:139
;MAXY:119
;MAXZ:14.85
;Generated with Cura_SteamEngine 4.8.0
M82 ;absolute extrusion mode
G21 ; set units to millimeters
G90 ; use absolute positioning
M82 ; absolute extrusion mode
M104 S200 ; set extruder temp
M140 S60 ; set bed temp
M190 S60 ; wait for bed temp
M109 S200 ; wait for extruder temp
G28 W ; home all without mesh bed level
G80 ; mesh bed leveling
G92 E0.0 ; reset extruder distance position
G1 Y-3.0 F1000.0 ; go outside print area
G1 X60.0 E9.0 F1000.0 ; intro line
G1 X100.0 E21.5 F1000.0 ; intro line
G92 E0.0 ; reset extruder distance position
G92 E0
G92 E0
G1 F2100 E-0.8
;LAYER_COUNT:50
;LAYER:0
M107
G0 F3600 X112.004 Y92.369 Z0.15
;TYPE:SKIRT
G1 F2100 E0
G1 F1800 X112.406 Y91.972 E0.01409
G1 X112.86 Y91.635 E0.0282
G1 X113.357 Y91.366 E0.0423
G1 X113.887 Y91.169 E0.0564
G1 X114.44 Y91.05 E0.07051
G1 X115.218 Y91.002 E0.08995
G1 X115.33 Y91 E0.09275
G1 X134.35 Y91 E0.5672
G1 X135.048 Y91.01 E0.58462
G1 X135.612 Y91.058 E0.59874
G1 X136.162 Y91.185 E0.61282
G1 X136.69 Y91.389 E0.62694
G1 X137.184 Y91.664 E0.64104
G1 X137.633 Y92.007 E0.65514
G1 X138.03 Y92.409 E0.66923
G1 X138.367 Y92.864 E0.68335
G1 X138.635 Y93.361 E0.69744
G1 X138.831 Y93.891 E0.71154
G1 X138.951 Y94.444 E0.72565
G1 X138.998 Y95.218 E0.74499
G1 X139 Y95.33 E0.74779
G1 X139 Y114.314 E1.22135
G1 X138.991 Y115.041 E1.23948
G1 X138.944 Y115.604 E1.25358
G1 X138.818 Y116.155 E1.26768
G1 X138.616 Y116.683 E1.28178
G1 X138.341 Y117.177 E1.29588
G1 X137.999 Y117.627 E1.30998
G1 X137.597 Y118.025 E1.32409
G1 X137.144 Y118.362 E1.33818
G1 X136.647 Y118.632 E1.35228
G1 X136.117 Y118.829 E1.36639
G1 X135.565 Y118.95 E1.38049
G1 X134.782 Y118.998 E1.40005
G1 X134.67 Y119 E1.40285
G1 X115.655 Y119 E1.87718
G1 X114.957 Y118.991 E1.89459
G1 X114.394 Y118.943 E1.90869
G1 X113.843 Y118.817 E1.92279
G1 X113.315 Y118.615 E1.93689
G1 X112.821 Y118.34 E1.95099
G1 X112.371 Y117.998 E1.96509
G1 X111.973 Y117.596 E1.9792
G1 X111.637 Y117.142 E1.99329
G1 X111.367 Y116.645 E2.0074
G1 X111.17 Y116.115 E2.02151
G1 X111.05 Y115.563 E2.0356
G1 X111.001 Y114.766 E2.05552
G1 X111 Y95.62 E2.53312
G1 X111.009 Y94.955 E2.54971
G1 X111.057 Y94.392 E2.5638
G1 X111.183 Y93.841 E2.5779
G1 X111.386 Y93.313 E2.59201
G1 X111.662 Y92.819 E2.60613
G1 X112.004 Y92.369 E2.62023
G0 F3600 X112.397 Y92.531
G1 F1800 X112.794 Y92.171 E2.6336
G1 X113.241 Y91.873 E2.647
G1 X113.726 Y91.645 E2.66037
G1 X114.24 Y91.492 E2.67374
G1 X114.908 Y91.41 E2.69053
G1 X115.33 Y91.4 E2.70106
G1 X134.345 Y91.4 E3.17539
G1 X135.043 Y91.41 E3.19281
G1 X135.577 Y91.458 E3.20618
G1 X136.098 Y91.584 E3.21955
G1 X136.595 Y91.787 E3.23294
G1 X137.056 Y92.061 E3.24632
G1 X137.471 Y92.4 E3.25969
G1 X137.831 Y92.798 E3.27307
G1 X138.128 Y93.244 E3.28644
G1 X138.356 Y93.73 E3.29983
G1 X138.508 Y94.244 E3.3132
G1 X138.59 Y94.909 E3.32992
G1 X138.6 Y95.33 E3.34042
G1 X138.6 Y114.309 E3.81386
G1 X138.591 Y115.036 E3.83199
G1 X138.544 Y115.57 E3.84536
G1 X138.419 Y116.091 E3.85873
G1 X138.217 Y116.588 E3.87211
G1 X137.944 Y117.05 E3.8855
G1 X137.606 Y117.466 E3.89887
G1 X137.209 Y117.827 E3.91225
G1 X136.763 Y118.125 E3.92563
G1 X136.278 Y118.353 E3.939
G1 X135.764 Y118.507 E3.95239
G1 X135.092 Y118.59 E3.96928
G1 X134.67 Y118.6 E3.97981
G1 X115.661 Y118.6 E4.45399
G1 X114.963 Y118.591 E4.4714
G1 X114.428 Y118.544 E4.4848
G1 X113.907 Y118.418 E4.49817
G1 X113.41 Y118.216 E4.51155
G1 X112.949 Y117.943 E4.52492
G1 X112.533 Y117.604 E4.5383
G1 X112.172 Y117.208 E4.55167
G1 X111.874 Y116.762 E4.56505
G1 X111.646 Y116.276 E4.57844
G1 X111.493 Y115.762 E4.59182
G1 X111.41 Y115.088 E4.60876
G1 X111.4 Y114.658 E4.61949
G1 X111.4 Y95.625 E5.09427
G1 X111.409 Y94.96 E5.11086
G1 X111.457 Y94.426 E5.12423
G1 X111.583 Y93.905 E5.13761
G1 X111.785 Y93.408 E5.15099
G1 X112.058 Y92.947 E5.16435
G1 X112.397 Y92.531 E5.17774
G0 F3600 X112.454 Y93.082
G1 F1800 X112.789 Y92.704 E5.19034
G1 X113.18 Y92.383 E5.20296
G1 X113.617 Y92.128 E5.21558
G1 X114.088 Y91.944 E5.22819
G1 X114.582 Y91.838 E5.2408
G1 X115.24 Y91.801 E5.25724
G1 X134.339 Y91.8 E5.73366
G1 X135.037 Y91.81 E5.75108
G1 X135.54 Y91.857 E5.76368
G1 X136.03 Y91.983 E5.7763
G1 X136.494 Y92.185 E5.78892
G1 X136.92 Y92.457 E5.80153
G1 X137.298 Y92.792 E5.81413
G1 X137.618 Y93.183 E5.82673
G1 X137.873 Y93.62 E5.83936
G1 X138.056 Y94.091 E5.85196
G1 X138.163 Y94.585 E5.86457
G1 X138.199 Y95.24 E5.88093
G1 X138.2 Y114.304 E6.35649
G1 X138.191 Y115.031 E6.37462
G1 X138.145 Y115.534 E6.38722
G1 X138.02 Y116.024 E6.39984
G1 X137.819 Y116.488 E6.41245
G1 X137.548 Y116.915 E6.42507
G1 X137.213 Y117.294 E6.43768
G1 X136.823 Y117.615 E6.45028
G1 X136.387 Y117.871 E6.4629
G1 X135.916 Y118.054 E6.4755
G1 X135.422 Y118.162 E6.48812
G1 X134.76 Y118.199 E6.50465
G1 X115.666 Y118.2 E6.98096
G1 X114.968 Y118.191 E6.99837
G1 X114.464 Y118.144 E7.011
G1 X113.974 Y118.019 E7.02361
G1 X113.51 Y117.818 E7.03622
G1 X113.084 Y117.547 E7.04882
G1 X112.705 Y117.212 E7.06144
G1 X112.384 Y116.821 E7.07406
G1 X112.129 Y116.385 E7.08666
G1 X111.945 Y115.914 E7.09927
G1 X111.838 Y115.42 E7.11188
G1 X111.801 Y114.744 E7.12877
G1 X111.8 Y95.631 E7.60554
G1 X111.809 Y94.966 E7.62213
G1 X111.856 Y94.462 E7.63476
G1 X111.982 Y93.973 E7.64736
G1 X112.183 Y93.509 E7.65997
G1 X112.454 Y93.082 E7.67259
G1 F2100 E6.87259
;MESH:piece4.5.stl
G0 F3600 X114.335 Y95.614
G0 X115.614 Y95.614
G0 X134.33 Y114.33
G0 X134.4 Y114.4
;TYPE:WALL-INNER
G1 F2100 E7.67259
G1 F1800 X115.6 Y114.4 E8.14155
G1 X115.6 Y95.6 E8.61052
G1 X134.4 Y95.6 E9.07949
G1 X134.4 Y114.4 E9.54846
G0 F3600 X134.8 Y114.8
;TYPE:WALL-OUTER
G1 F1800 X115.2 Y114.8 E10.03738
G1 X115.2 Y95.2 E10.52631
G1 X134.8 Y95.2 E11.01523
G1 X134.8 Y114.8 E11.50415
G0 F3600 X134.6 Y114.8
G0 X134.01 Y114.01
;TYPE:SKIN
G1 F1800 X115.99 Y114.01 E11.95366
G1 X115.99 Y95.99 E12.40317
G1 X134.01 Y95.99 E12.85269
G1 X134.01 Y114.01 E13.3022
G0 F3600 X133.829 Y96.494
G1 F1800 X133.505 Y96.17 E13.31363
G0 F3600 X132.939 Y96.17
G1 F1800 X133.829 Y97.06 E13.34502
G0 F3600 X133.829 Y97.625
G1 F1800 X132.373 Y96.17 E13.39637
G0 F3600 X131.808 Y96.17
G1 F1800 X133.829 Y98.191 E13.46767
G0 F3600 X133.829 Y98.757
G1 F1800 X131.242 Y96.17 E13.55893
G0 F3600 X130.676 Y96.17
G1 F1800 X133.829 Y99.323 E13.67016
G0 F3600 X133.829 Y99.888
G1 F1800 X130.111 Y96.17 E13.80132
G0 F3600 X129.545 Y96.17
G1 F1800 X133.829 Y100.454 E13.95245
G0 F3600 X133.829 Y101.02
G1 F1800 X128.979 Y96.17 E14.12355
G0 F3600 X128.414 Y96.17
G1 F1800 X133.829 Y101.585 E14.31458
G0 F3600 X133.829 Y102.151
G1 F1800 X127.848 Y96.17 E14.52557
G0 F3600 X127.282 Y96.17
G1 F1800 X133.829 Y102.717 E14.75654
G0 F3600 X133.829 Y103.282
G1 F1800 X126.717 Y96.17 E15.00743
G0 F3600 X126.151 Y96.17
G1 F1800 X133.829 Y103.848 E15.27829
G0 F3600 X133.829 Y104.414
G1 F1800 X125.585 Y96.17 E15.56912
G0 F3600 X125.02 Y96.17
G1 F1800 X133.829 Y104.979 E15.87989
G0 F3600 X133.829 Y105.545
G1 F1800 X124.454 Y96.17 E16.21061
G0 F3600 X123.888 Y96.17
G1 F1800 X133.829 Y106.111 E16.56131
G0 F3600 X133.829 Y106.676
G1 F1800 X123.322 Y96.17 E16.93195
G0 F3600 X122.757 Y96.17
G1 F1800 X133.829 Y107.242 E17.32255
G0 F3600 X133.829 Y107.808
G1 F1800 X122.191 Y96.17 E17.73311
G0 F3600 X121.625 Y96.17
G1 F1800 X133.829 Y108.374 E18.16364
G0 F3600 X133.829 Y108.939
G1 F1800 X121.06 Y96.17 E18.6141
G0 F3600 X120.494 Y96.17
G1 F1800 X133.829 Y109.505 E19.08453
G0 F3600 X133.829 Y110.071
G1 F1800 X119.928 Y96.17 E19.57492
G0 F3600 X119.363 Y96.17
G1 F1800 X133.829 Y110.636 E20.08525
G0 F3600 X133.829 Y111.202
G1 F1800 X118.797 Y96.17 E20.61555
G0 F3600 X118.231 Y96.17
G1 F1800 X133.829 Y111.768 E21.16581
G0 F3600 X133.829 Y112.333
G1 F1800 X117.666 Y96.17 E21.736
G0 F3600 X117.1 Y96.17
G1 F1800 X133.829 Y112.899 E22.32616
G0 F3600 X133.829 Y113.465
G1 F1800 X116.534 Y96.17 E22.93629
G0 F3600 X116.169 Y96.37
G1 F1800 X133.629 Y113.83 E23.55224
G0 F3600 X133.063 Y113.83
G1 F1800 X116.169 Y96.935 E24.14824
G0 F3600 X116.169 Y97.501
G1 F1800 X132.497 Y113.83 E24.72427
G0 F3600 X131.931 Y113.83
G1 F1800 X116.169 Y98.067 E25.28033
G0 F3600 X116.169 Y98.632
G1 F1800 X131.366 Y113.83 E25.81647
G0 F3600 X130.8 Y113.83
G1 F1800 X116.169 Y99.198 E26.33263
G0 F3600 X116.169 Y99.764
G1 F1800 X130.234 Y113.83 E26.82883
G0 F3600 X129.669 Y113.83
G1 F1800 X116.169 Y100.329 E27.3051
G0 F3600 X116.169 Y100.895
G1 F1800 X129.103 Y113.83 E27.7614
G0 F3600 X128.537 Y113.83
G1 F1800 X116.169 Y101.461 E28.19773
G0 F3600 X116.169 Y102.027
G1 F1800 X127.972 Y113.83 E28.61411
G0 F3600 X127.406 Y113.83
G1 F1800 X116.169 Y102.592 E29.01055
G0 F3600 X116.169 Y103.158
G1 F1800 X126.84 Y113.83 E29.38701
G0 F3600 X126.275 Y113.83
G1 F1800 X116.169 Y103.724 E29.74353
G0 F3600 X116.169 Y104.289
G1 F1800 X125.709 Y113.83 E30.08009
G0 F3600 X125.143 Y113.83
G1 F1800 X116.169 Y104.855 E30.39669
G0 F3600 X116.169 Y105.421
G1 F1800 X124.578 Y113.83 E30.69334
G0 F3600 X124.012 Y113.83
G1 F1800 X116.169 Y105.986 E30.97004
G0 F3600 X116.169 Y106.552
G1 F1800 X123.446 Y113.83 E31.22678
G0 F3600 X122.881 Y113.83
G1 F1800 X116.169 Y107.118 E31.46356
G0 F3600 X116.169 Y107.683
G1 F1800 X122.315 Y113.83 E31.6804
G0 F3600 X121.749 Y113.83
G1 F1800 X116.169 Y108.249 E31.87726
G0 F3600 X116.169 Y108.815
G1 F1800 X121.183 Y113.83 E32.05416
G0 F3600 X120.618 Y113.83
G1 F1800 X116.169 Y109.38 E32.21113
G0 F3600 X116.169 Y109.946
G1 F1800 X120.052 Y113.83 E32.34813
G0 F3600 X119.486 Y113.83
G1 F1800 X116.169 Y110.512 E32.46517
G0 F3600 X116.169 Y111.077
G1 F1800 X118.921 Y113.83 E32.56227
G0 F3600 X118.355 Y113.83
G1 F1800 X116.169 Y111.643 E32.6394
G0 F3600 X116.169 Y112.209
G1 F1800 X117.789 Y113.83 E32.69657
G0 F3600 X117.224 Y113.83
G1 F1800 X116.169 Y112.775 E32.73379
G0 F3600 X116.169 Y113.34
M104 S200
G1 F1800 X116.658 Y113.83 E32.75106
;MESH:NONMESH
G0 F600 X116.658 Y113.83 Z0.45
G0 F3600 X134.33 Y114.33
G0 X134.4 Y114.4
;TIME_ELAPSED:53.114009
;LAYER:1
M106 S255
;TYPE:WALL-INNER
;MESH:piece4.5.stl
G1 F2700 X115.6 Y114.4 E33.68899
G1 X115.6 Y95.6 E34.62693
G1 X134.4 Y95.6 E35.56486
G1 X134.4 Y114.4 E36.5028
G0 F5400 X134.8 Y114.8
;TYPE:WALL-OUTER
G1 F1800 X115.2 Y114.8 E37.48065
G1 X115.2 Y95.2 E38.4585
G1 X134.8 Y95.2 E39.43634
G1 X134.8 Y114.8 E40.41419
G0 F5400 X134.6 Y114.8
G0 X134.01 Y114.01
;TYPE:SKIN
G1 F1800 X115.99 Y114.01 E41.31321
G1 X115.99 Y95.99 E42.21224
G1 X134.01 Y95.99 E43.11126
G1 X134.01 Y114.01 E44.01028
G0 F5400 X133.829 Y113.375
G1 F1800 X133.374 Y113.83 E44.04238
G0 F5400 X132.808 Y113.83
G1 F1800 X133.829 Y112.809 E44.11442
G0 F5400 X133.829 Y112.244
G1 F1800 X132.243 Y113.83 E44.22632
G0 F5400 X131.677 Y113.83
G1 F1800 X133.829 Y111.678 E44.37815
G0 F5400 X133.829 Y111.112
G1 F1800 X131.111 Y113.83 E44.56992
G0 F5400 X130.546 Y113.83
G1 F1800 X133.829 Y110.546 E44.80159
G0 F5400 X133.829 Y109.981
G1 F1800 X129.98 Y113.83 E45.07316
G0 F5400 X129.414 Y113.83
G1 F1800 X133.829 Y109.415 E45.38466
G0 F5400 X133.829 Y108.849
G1 F1800 X128.848 Y113.83 E45.7361
G0 F5400 X128.283 Y113.83
G1 F1800 X133.829 Y108.284 E46.1274
G0 F5400 X133.829 Y107.718
G1 F1800 X127.717 Y113.83 E46.55863
G0 F5400 X127.151 Y113.83
G1 F1800 X133.829 Y107.152 E47.0298
G0 F5400 X133.829 Y106.587
G1 F1800 X126.586 Y113.83 E47.54084
G0 F5400 X126.02 Y113.83
G1 F1800 X133.829 Y106.021 E48.0918
G0 F5400 X133.829 Y105.455
G1 F1800 X125.454 Y113.83 E48.6827
G0 F5400 X124.889 Y113.83
G1 F1800 X133.829 Y104.89 E49.31347
G0 F5400 X133.829 Y104.324
G1 F1800 X124.323 Y113.83 E49.98417
G0 F5400 X123.757 Y113.83
G1 F1800 X133.829 Y103.758 E50.6948
G0 F5400 X133.829 Y103.193
G1 F1800 X123.192 Y113.83 E51.4453
G0 F5400 X122.626 Y113.83
G1 F1800 X133.829 Y102.627 E52.23573
G0 F5400 X133.829 Y102.061
G1 F1800 X122.06 Y113.83 E53.0661
G0 F5400 X121.495 Y113.83
G1 F1800 X133.829 Y101.495 E53.93636
G0 F5400 X133.829 Y100.93
G1 F1800 X120.929 Y113.83 E54.84653
G0 F5400 X120.363 Y113.83
G1 F1800 X133.829 Y100.364 E55.79663
G0 F5400 X133.829 Y99.798
G1 F1800 X119.798 Y113.83 E56.78663
G0 F5400 X119.232 Y113.83
G1 F1800 X133.829 Y99.233 E57.81652
G0 F5400 X133.829 Y98.667
G1 F1800 X118.666 Y113.83 E58.88636
G0 F5400 X118.1 Y113.83
G1 F1800 X133.829 Y98.101 E59.99612
G0 F5400 X133.829 Y97.536
G1 F1800 X117.535 Y113.83 E61.14575
G0 F5400 X116.969 Y113.83
G1 F1800 X133.829 Y96.97 E62.33532
G0 F5400 X133.829 Y96.404
G1 F1800 X116.403 Y113.83 E63.56481
G0 F5400 X116.169 Y113.498
G1 F1800 X133.498 Y96.17 E64.78743
G0 F5400 X132.932 Y96.17
G1 F1800 X116.169 Y112.932 E65.97012
G0 F5400 X116.169 Y112.367
G1 F1800 X132.366 Y96.17 E67.1129
G0 F5400 X131.801 Y96.17
G1 F1800 X116.169 Y111.801 E68.21579
G0 F5400 X116.169 Y111.235
G1 F1800 X131.235 Y96.17 E69.27874
G0 F5400 X130.669 Y96.17
G1 F1800 X116.169 Y110.669 E70.30176
G0 F5400 X116.169 Y110.104
G1 F1800 X130.104 Y96.17 E71.28491
G0 F5400 X129.538 Y96.17
G1 F1800 X116.169 Y109.538 E72.22813
G0 F5400 X116.169 Y108.972
G1 F1800 X128.972 Y96.17 E73.13142
G0 F5400 X128.407 Y96.17
G1 F1800 X116.169 Y108.407 E73.99484
G0 F5400 X116.169 Y107.841
G1 F1800 X127.841 Y96.17 E74.81833
G0 F5400 X127.275 Y96.17
G1 F1800 X116.169 Y107.275 E75.60188
G0 F5400 X116.169 Y106.71
G1 F1800 X126.709 Y96.17 E76.34554
G0 F5400 X126.144 Y96.17
G1 F1800 X116.169 Y106.144 E77.04929
G0 F5400 X116.169 Y105.578
G1 F1800 X125.578 Y96.17 E77.71311
G0 F5400 X125.012 Y96.17
G1 F1800 X116.169 Y105.013 E78.33703
G0 F5400 X116.169 Y104.447
G1 F1800 X124.447 Y96.17 E78.92106
G0 F5400 X123.881 Y96.17
G1 F1800 X116.169 Y103.881 E79.46514
G0 F5400 X116.169 Y103.316
G1 F1800 X123.315 Y96.17 E79.96933
G0 F5400 X122.75 Y96.17
G1 F1800 X116.169 Y102.75 E80.43362
G0 F5400 X116.169 Y102.184
G1 F1800 X122.184 Y96.17 E80.85798
G0 F5400 X121.618 Y96.17
G1 F1800 X116.169 Y101.619 E81.24243
G0 F5400 X116.169 Y101.053
G1 F1800 X121.053 Y96.17 E81.58699
G0 F5400 X120.487 Y96.17
G1 F1800 X116.169 Y100.487 E81.89161
G0 F5400 X116.169 Y99.921
G1 F1800 X119.921 Y96.17 E82.1563
G0 F5400 X119.356 Y96.17
G1 F1800 X116.169 Y99.356 E82.38113
G0 F5400 X116.169 Y98.79
G1 F1800 X118.79 Y96.17 E82.56602
G0 F5400 X118.224 Y96.17
G1 F1800 X116.169 Y98.224 E82.71097
G0 F5400 X116.169 Y97.659
G1 F1800 X117.659 Y96.17 E82.81607
G0 F5400 X117.093 Y96.17
G1 F1800 X116.169 Y97.093 E82.88122
G0 F5400 X116.169 Y96.527
G1 F1800 X116.527 Y96.17 E82.90645
;MESH:NONMESH
G0 F600 X116.527 Y96.17 Z0.75
G0 F5400 X134.33 Y114.33
G0 X134.4 Y114.4
;TIME_ELAPSED:89.985130
;LAYER:2
;TYPE:WALL-INNER
;MESH:piece4.5.stl
G1 F3600 X115.6 Y114.4 E83.84438
G1 X115.6 Y95.6 E84.78232
G1 X134.4 Y95.6 E85.72026
G1 X134.4 Y114.4 E86.65819
G0 F7200 X134.8 Y114.8
;TYPE:WALL-OUTER
G1 F1800 X115.2 Y114.8 E87.63604
G1 X115.2 Y95.2 E88.61389
G1 X134.8 Y95.2 E89.59173
G1 X134.8 Y114.8 E90.56958
G0 F7200 X134.6 Y114.8
G0 X134.01 Y114.01
;TYPE:SKIN
G1 F1800 X115.99 Y114.01 E91.4686
G1 X115.99 Y95.99 E92.36763
G1 X134.01 Y95.99 E93.26665
G1 X134.01 Y114.01 E94.16567
G0 F7200 X133.829 Y96.494
G1 F1800 X133.505 Y96.17 E94.18853
G0 F7200 X132.939 Y96.17
G1 F1800 X133.829 Y97.06 E94.25132
G0 F7200 X133.829 Y97.625
G1 F1800 X132.373 Y96.17 E94.35402
G0 F7200 X131.808 Y96.17
G1 F1800 X133.829 Y98.191 E94.49661
G0 F7200 X133.829 Y98.757
G1 F1800 X131.242 Y96.17 E94.67914
G0 F7200 X130.676 Y96.17
G1 F1800 X133.829 Y99.323 E94.9016
G0 F7200 X133.829 Y99.888
G1 F1800 X130.111 Y96.17 E95.16392
G0 F7200 X129.545 Y96.17
G1 F1800 X133.829 Y100.454 E95.46618
G0 F7200 X133.829 Y101.02
G1 F1800 X128.979 Y96.17 E95.80837
G0 F7200 X128.414 Y96.17
G1 F1800 X133.829 Y101.585 E96.19043
G0 F7200 X133.829 Y102.151
G1 F1800 X127.848 Y96.17 E96.61242
G0 F7200 X127.282 Y96.17
G1 F1800 X133.829 Y102.717 E97.07435
G0 F7200 X133.829 Y103.282
G1 F1800 X126.717 Y96.17 E97.57614
G0 F7200 X126.151 Y96.17
G1 F1800 X133.829 Y103.848 E98.11786
G0 F7200 X133.829 Y104.414
G1 F1800 X125.585 Y96.17 E98.69952
G0 F7200 X125.02 Y96.17
G1 F1800 X133.829 Y104.979 E99.32105
G0 F7200 X133.829 Y105.545
G1 F1800 X124.454 Y96.17 E99.9825
G0 F7200 X123.888 Y96.17
G1 F1800 X133.829 Y106.111 E100.68389
G0 F7200 X133.829 Y106.676
G1 F1800 X123.322 Y96.17 E101.42518
G0 F7200 X122.757 Y96.17
